X:40
T:Rain a Sup
T:Kiskeam
R:slide
Z:id:hn-slide-40
M:6/8
K:G
d2B BAB|c2B A2B|c2c cBc|e2d B2c|
d2B BAB|c2B A2B|cde dcB|1 GBd gfe:|2 G3 G2B||
|:d2g gfg|a2g f2d|e2e edf|f2e def|
g2g gfg|a2g f2d|efg a2g|fef g2e:|
<end>
<start>
